assets/images/parnter4.svg

<svg width="200" height="200" viewBox="0 0 200 200" fill="none" xmlns="http://www.w3.org/2000/svg">
<g clip-path="url(#clip0_452_312)">
<path fill-rule="evenodd" clip-rule="evenodd" d="M0 0H200V200H0V0Z" fill="#F6F7FA"/>
<path fill-rule="evenodd" clip-rule="evenodd" d="M26.948 135.143C26.5547 143.877 37.4047 141.081 39.2983 135.632L54.0641 93.1209C47.2379 95.3548 41.6132 100.526 38.103 106.486C35.7249 110.525 34.6624 117.255 40.4915 120.342C39.9572 122.875 37.8737 125.262 34.5026 125.335C27.833 125.477 24.9517 118.023 27.0486 107.913C30.068 93.3502 49.4645 82.2958 62.6242 83.3977C74.7618 84.4135 82.4129 94.3099 81.3411 105.293C80.4187 114.748 73.5406 125.615 66.292 127.271C72.034 133.3 72.4926 143.772 79.1912 143.755C80.0908 147.287 77.4491 151.987 73.3912 152.088C62.2289 152.366 60.0977 128.884 53.095 127.409C51.6884 131.427 50.2742 135.442 48.8524 139.454C46.2667 146.753 39.2859 151.121 32.1307 151.399C24.0241 151.713 17.3638 145.749 17.9345 138.778C18.3765 133.4 27.1586 130.455 26.948 135.143ZM65.0895 93.0005C61.709 102.687 58.3473 112.38 54.9637 122.065C60.1091 122.858 68.3911 114.745 70.8304 107.681C72.8651 101.792 70.185 95.4326 65.0895 93.0005ZM124.586 150.039C118.548 149.797 114.534 145.234 117.593 136.054L119.592 130.06H111.601C109.83 143.421 101.03 150.127 91.8705 150.165C83.3955 150.199 77.2956 139.793 79.7578 131.059C82.4959 121.35 92.6373 113.454 101.985 113.951C107.785 114.26 111.953 116.886 113.473 121.444H122.463L130.332 97.8429H140.569L132.652 121.444H138.946L136.074 130.061H129.761L127.456 136.929C126.516 139.735 131.23 139.899 133.325 137.802C136.801 134.326 138.987 132.057 142.691 126.191C146.266 120.527 152.536 114.244 161.047 113.829C170.885 113.344 171.542 118.007 173.348 120.123C176.586 123.912 182.056 119.847 183.774 119.446C182.932 121.019 182.571 124.989 181.123 127.039C179.352 129.548 174.73 130.711 172.535 130.435C171.774 134.558 167.238 149.578 153.429 150.041C146.972 150.257 143.585 145.914 141.565 142.174C136.291 147.936 130.196 150.267 124.586 150.039ZM96.9899 123.568C92.9537 123.483 88.3676 128.47 87.4992 134.307C87.0333 137.44 89.3326 142.496 92.4941 142.299C98.5888 141.92 102.502 137.608 103.233 130.061C98.7797 130.184 96.7813 128.437 96.9899 123.568ZM157.927 122.943C153.892 122.858 149.306 127.846 148.437 133.682C147.971 136.815 150.272 141.872 153.432 141.672C159.526 141.294 163.44 136.983 164.171 129.436C159.717 129.56 157.718 127.811 157.927 122.943ZM2.94043 159.137H197.058V116.785L110.04 40.8641H88.545L2.94043 116.487V159.137ZM14.6931 110.071L89.9426 42.7038L166.864 110.071H14.6931ZM182.695 46.4494H187.486C188.205 46.4494 188.819 46.5843 189.325 46.852C189.832 47.1187 190.211 47.4715 190.469 47.9062C190.724 48.3409 190.85 48.8027 190.85 49.2934C190.85 50.0281 190.586 50.6589 190.059 51.185C189.534 51.7141 188.802 51.9756 187.864 51.9756C187.707 51.9756 187.579 51.9694 187.486 51.9548L190.424 56.5555H188.943L186.005 52.1426H183.989V56.5555H182.696L182.695 46.4494ZM187.113 51.0345C187.836 51.0345 188.396 50.8633 188.793 50.5199C189.19 50.1795 189.391 49.7707 189.391 49.2955C189.391 48.8307 189.204 48.426 188.831 48.0795C188.459 47.7288 187.947 47.5565 187.301 47.5565H183.988V51.0345H187.113ZM177.005 51.7629V51.434C177.005 49.8102 177.402 48.3202 178.193 46.9693C178.964 45.6371 180.074 44.5327 181.41 43.7683C182.749 42.9924 184.271 42.5887 185.819 42.599C186.968 42.599 188.09 42.8252 189.191 43.2755C190.288 43.7262 191.293 44.3728 192.158 45.1836C193.036 46.0003 193.745 46.9818 194.243 48.0722C194.754 49.1778 195.017 50.382 195.011 51.6C194.973 53.2248 194.652 54.6204 194.048 55.7856C193.447 56.9549 192.687 57.8888 191.771 58.5891C190.906 59.2623 189.931 59.7801 188.89 60.1196C187.882 60.4402 186.93 60.5979 186.03 60.5979C185.858 60.5979 185.734 60.5927 185.657 60.5771C184.618 60.5388 183.593 60.2773 182.579 59.7958C181.55 59.3015 180.613 58.634 179.811 57.8224C178.991 57.0068 178.317 56.0559 177.821 55.0116C177.333 53.9946 177.055 52.8897 177.005 51.7629ZM178.298 51.7577C178.298 52.6946 178.502 53.617 178.914 54.5249C179.33 55.4383 179.903 56.2717 180.607 56.9871C181.31 57.7105 182.134 58.3065 183.041 58.7489C183.907 59.1824 184.852 59.4345 185.819 59.4898H186.103C187.041 59.4898 187.963 59.2833 188.871 58.8724C189.793 58.4515 190.63 57.8641 191.339 57.1396C192.073 56.4044 192.665 55.5397 193.084 54.5893C193.504 53.6471 193.72 52.6271 193.718 51.5958C193.718 50.221 193.359 48.9396 192.642 47.7526C191.943 46.5844 190.959 45.6133 189.781 44.9304C188.592 44.2342 187.331 43.8866 186.005 43.8866C185.265 43.8866 184.453 44.0391 183.565 44.3421C182.647 44.6632 181.791 45.1402 181.035 45.7522C180.236 46.3872 179.578 47.21 179.068 48.2206C178.553 49.2312 178.298 50.4109 178.298 51.7577Z" fill="#CC2229"/>
</g>
<defs>
<clipPath id="clip0_452_312">
<rect width="200" height="200" fill="white"/>
</clipPath>
</defs>
</svg>

<svg width="200" height="200" fill="none" xmlns="http://www.w3.org/2000/svg"><g clip-path="url(#a)" fill-rule="evenodd" clip-rule="evenodd"><path d="M0 0h200v200H0V0Z" fill="#F6F7FA"/><path d="M26.948 135.143c-.393 8.734 10.457 5.938 12.35.489l14.766-42.511c-6.826 2.234-12.45 7.405-15.961 13.365-2.378 4.039-3.44 10.769 2.389 13.856-.535 2.533-2.618 4.92-5.99 4.993-6.669.142-9.55-7.312-7.453-17.422 3.019-14.563 22.416-25.617 35.575-24.515 12.138 1.016 19.789 10.912 18.717 21.895-.922 9.455-7.8 20.322-15.049 21.978 5.742 6.029 6.2 16.501 12.9 16.484.899 3.532-1.743 8.232-5.8 8.333-11.163.278-13.294-23.204-20.297-24.679-1.407 4.018-2.82 8.033-4.243 12.045-2.585 7.299-9.566 11.667-16.721 11.945-8.107.314-14.767-5.65-14.197-12.621.442-5.378 9.225-8.323 9.014-3.635ZM65.09 93.001c-3.381 9.686-6.743 19.379-10.126 29.064 5.145.793 13.427-7.32 15.866-14.384 2.035-5.889-.645-12.248-5.74-14.68Zm59.496 57.038c-6.038-.242-10.052-4.805-6.993-13.985l1.999-5.994h-7.991c-1.771 13.361-10.571 20.067-19.73 20.105-8.475.034-14.575-10.372-12.113-19.106 2.738-9.709 12.88-17.605 22.227-17.108 5.8.309 9.968 2.935 11.488 7.493h8.99l7.869-23.601h10.237l-7.917 23.601h6.294l-2.872 8.617h-6.313l-2.305 6.868c-.94 2.806 3.774 2.97 5.869.873 3.476-3.476 5.662-5.745 9.366-11.611 3.575-5.664 9.845-11.947 18.356-12.362 9.838-.485 10.495 4.178 12.301 6.294 3.238 3.789 8.708-.276 10.426-.677-.842 1.573-1.203 5.543-2.651 7.593-1.771 2.509-6.393 3.672-8.588 3.396-.761 4.123-5.297 19.143-19.106 19.606-6.457.216-9.844-4.127-11.864-7.867-5.274 5.762-11.369 8.093-16.979 7.865ZM96.99 123.568c-4.036-.085-8.622 4.902-9.49 10.739-.467 3.133 1.833 8.189 4.994 7.992 6.095-.379 10.008-4.691 10.739-12.238-4.453.123-6.452-1.624-6.243-6.493Zm60.937-.625c-4.035-.085-8.621 4.903-9.49 10.739-.466 3.133 1.835 8.19 4.995 7.99 6.094-.378 10.008-4.689 10.739-12.236-4.454.124-6.453-1.625-6.244-6.493ZM2.94 159.137h194.118v-42.352l-87.018-75.92H88.545L2.94 116.486v42.65Zm11.753-49.066 75.25-67.367 76.921 67.367H14.694Zm168.002-63.622h4.791c.719 0 1.333.135 1.839.403.507.267.886.62 1.144 1.054.255.435.381.897.381 1.387 0 .735-.264 1.366-.791 1.892-.525.53-1.257.79-2.195.79-.157 0-.285-.006-.378-.02l2.938 4.6h-1.481l-2.938-4.412h-2.016v4.413h-1.293l-.001-10.107Zm4.418 4.586c.723 0 1.283-.172 1.68-.515.397-.34.598-.75.598-1.225 0-.464-.187-.869-.56-1.215-.372-.351-.884-.523-1.53-.523h-3.313v3.477h3.125Zm-10.108.728v-.329c0-1.624.397-3.114 1.188-4.465a8.72 8.72 0 0 1 3.217-3.2 8.678 8.678 0 0 1 4.409-1.17c1.149 0 2.271.226 3.372.677a9.764 9.764 0 0 1 2.967 1.908 9.121 9.121 0 0 1 2.085 2.888 8.312 8.312 0 0 1 .768 3.528c-.038 1.625-.359 3.02-.963 4.186-.601 1.169-1.361 2.103-2.277 2.803a9.474 9.474 0 0 1-2.881 1.53c-1.008.321-1.96.479-2.86.479-.172 0-.296-.005-.373-.02-1.039-.04-2.064-.3-3.078-.782a9.947 9.947 0 0 1-2.768-1.974 10.043 10.043 0 0 1-1.99-2.81 8.367 8.367 0 0 1-.816-3.25Zm1.293-.005c0 .937.204 1.859.616 2.767a8.581 8.581 0 0 0 1.693 2.462 8.732 8.732 0 0 0 2.434 1.762 7.112 7.112 0 0 0 2.778.74h.284c.938 0 1.86-.206 2.768-.617a8.243 8.243 0 0 0 2.468-1.732 8.415 8.415 0 0 0 1.745-2.55c.42-.943.636-1.963.634-2.994a7.303 7.303 0 0 0-1.076-3.843 8.023 8.023 0 0 0-2.861-2.823c-1.189-.696-2.45-1.043-3.776-1.043-.74 0-1.552.152-2.44.455a8.461 8.461 0 0 0-2.53 1.41c-.799.635-1.457 1.458-1.967 2.469-.515 1.01-.77 2.19-.77 3.537Z" fill="#CC2229"/></g><defs><clipPath id="a"><path fill="#fff" d="M0 0h200v200H0z"/></clipPath></defs></svg>
